!!!SOCIAL_FUNCTION: hand game and ghost dance songs
!!!PDT:	1929
!!!LING_GROUP: Caddoan
!!!LANG: Non-Tone
!!!REG: Oklahoma
!!!COM: Anon.
!!!OTL: I Hear the Sound of a Child Crying
!!!ODT: <1920//
!!!MPN: Tsastawinahiigat [She led a phony into the ceremony, Effie Blain]
!!!MLC: Pawnee, Oklahoma, United States of America
!! Song was recorded either 1919 or 1920.
!!!AGN: monody
!!!AMT: irregular
!!!RWG: Transcribed pitches, durations, and meters are only approximate.
!! Drum Tempo:  MM92
!! Drum-rhythm: (8 8 8 8 8 8)
**kern	**silbe	**words	**words	**recip
*ICvox	*LPawnee	*LPawnee	*LEnglish	*ICidio
*Ifemale	*	*	*	*Itom
*clefG2	*	*	*	*
*k[b-e-a-d-g-]	*	*	*	*
*MM92	*MM92	*MM92	*MM92	*MM92
*[A,A]	*[A,A]	*[A,A]	*[A,A]	*[A,A]
*>A	*>A	*>A	*>A	*>A
*M3/4	*M3/4	*M3/4	*M3/4	*M3/4
8d-	Pi-	Piraski	Child	8
8d-	-ras-	.	.	8
=1	=1	=1	=1	=1
(8.a-	-ki	.	.	8
.	.	.	.	8
16g-)	.	.	.	.
8a-	ra	ra	have	8
8a-	wa-	waka	sound	8
8g-	-ka	.	.	8
8d-	ka-	kawitiku	crying	8
=2	=2	=2	=2	=2
4d-	-wi-	.	.	8
.	.	.	.	8
16A-	-ti-	.	.	8
8.A-	-ku	.	.	.
.	.	.	.	8
8d-	pi-	piraski	child	8
8d-	-ras-	.	.	8
=3	=3	=3	=3	=3
(8.a-	-ki	.	.	8
.	.	.	.	8
16g-)	.	.	.	.
8a-	ra	ra	have	8
8a-	wa-	waka	sound	8
8g-	-ka	.	.	8
8d-	ka-	kawitiku	crying	8
=4	=4	=4	=4	=4
4d-	-wi-	.	.	8
.	.	.	.	8
16A-	-ti-	.	.	8
8.A-	-ku	.	.	.
.	.	.	.	8
8A-	a-	atira	mother	8
8d-	-ti-	.	.	8
*M2/4	*M2/4	*M2/4	*M2/4	*M2/4
=5	=5	=5	=5	=5
4d-	-ra	.	.	8
.	.	.	.	8
8d-	ka-	kawe	is she	8
8e-	-we	.	.	8
*M3/4	*M3/4	*M3/4	*M3/4	*M3/4
=6	=6	=6	=6	=6
4d-	ra-	rahu	coming	8
.	.	.	.	8
4A-	-hu	.	.	8
.	.	.	.	8
8A-	a-	atira	mother	8
8d-	-ti-	.	.	8
*M2/4	*M2/4	*M2/4	*M2/4	*M2/4
=7	=7	=7	=7	=7
4d-	-ra	.	.	8
.	.	.	.	8
8d-	ka-	kawe	is she	8
8e-	-we	.	.	8
*M3/4	*M3/4	*M3/4	*M3/4	*M3/4
=8	=8	=8	=8	=8
4d-	ra-	rahu	coming	8
.	.	.	.	8
4A-	-hu	.	.	8
.	.	.	.	8
8B-	ti	ti	here	8
8d-	rat	rat	I do	8
=9	=9	=9	=9	=9
4d-	pa	pa	walk	8
.	.	.	.	8
4d-	ri	ri	around	8
.	.	.	.	8
8B-	ti	ti	here	8
8d-	rat	rat	I do	8
=10	=10	=10	=10	=10
4d-	pa	pa	walk	8
.	.	.	.	8
4d-	ri	ri	around	8
.	.	.	.	8
==:|!	==:|!	==:|!	==:|!	==:|!
*-	*-	*-	*-	*-
!!!HAO:    The following song was also sung while the game was in progress.
!!!HAO: In explanation it was said, "This song belonged to a man who died
!!!HAO: long ago.  He had one daughter and she died.  The old man cried
!!!HAO: every day but at last, one night, he heard a cry in the woods.  It
!!!HAO: was his daughter, who said, `Father, I am in heaven.'  Afterwards
!!!HAO: he did not cry any more."
!!!HTX: I hear the sound of a child crying "Is my mother coming?
!!!HTX: Here I walk around."
!!!CNT: Pawnee
!!!TXO: Pawnee
!!!OCY: United States
!!!OCL: Frances Densmore
!!!YOR: Frances Densmore, "Pawnee Music"
!!!YOR: Bulletin 93, page 76, No. 47
!!!PPR: Smithsonian Institution, Bureau of American Ethnology
!!!PPR: Government Printing Office
!!!PDT: 1926
!!!PPP: Washington, DC, United States of America
!!!YEC: Electronic Copyright 2000 David Huron
!!!YER: September 2000
!!!YEN: United States of America
!!!ENC: David Huron
!!!RDT: September 4, 2000
!!!EEV: Release 1.0
!!!AIN: tom, vox
